X:295
T: Gene Preston's Flute
C: BB
R: jig
Q: 1/8=320
M: 6/8
L: 1/8
K: G
"G"GFG dcB|"G"dcB "C"efg|"G"GFG dcB|"Am7"ABG "D"FED|
"G"GFG dcB|"G"dcB "C"efg|"G"bgg "D"aff|"G"ged "D7"cBA :|
"G"DGG dGG|"C"eGG "G"dGG|"A"EAA ^cAA|"A"eAA ^cAA|
"D"Fdd fdd|"D"add fdd|"G"gfe "D7"dcB|1 "Am7"ABG "D"FGA :|\
[2 "D" AFA G3 ||
%%%%%%%%%%%%%%%%%%%%%%%%%%%%%%%%%%%%%%%%%%%
